svg/eye_settings.svg

<svg xmlns="http://www.w3.org/2000/svg" viewBox="0 0 24 24"><path d="M12 9a3 3 0 0 0-3 3 3 3 0 0 0 3 3 3 3 0 0 0 3-3 3 3 0 0 0-3-3m0 8a5 5 0 0 1-5-5 5 5 0 0 1 5-5 5 5 0 0 1 5 5 5 5 0 0 1-5 5m0-12.5c-4.86 0-9.22 3-11 7.5 2.39 6.08 9.25 9.06 15.33 6.67 3.05-1.2 5.47-3.61 6.67-6.67-1.78-4.5-6.14-7.5-11-7.5M7 22h2v2H7zm4 0h2v2h-2zm4 0h2v2h-2z"/></svg>

<?xml version="1.0" encoding="UTF-8"?><!DOCTYPE svg PUBLIC "-//W3C//DTD SVG 1.1//EN" "http://www.w3.org/Graphics/SVG/1.1/DTD/svg11.dtd"><svg xmlns="http://www.w3.org/2000/svg" xmlns:xlink="http://www.w3.org/1999/xlink" version="1.1" id="mdi-eye-settings" width="24" height="24" viewBox="0 0 24 24"><path d="M12,9A3,3 0 0,0 9,12A3,3 0 0,0 12,15A3,3 0 0,0 15,12A3,3 0 0,0 12,9M12,17A5,5 0 0,1 7,12A5,5 0 0,1 12,7A5,5 0 0,1 17,12A5,5 0 0,1 12,17M12,4.5C7.14,4.5 2.78,7.5 1,12C3.39,18.08 10.25,21.06 16.33,18.67C19.38,17.47 21.8,15.06 23,12C21.22,7.5 16.86,4.5 12,4.5M7,22H9V24H7V22M11,22H13V24H11V22M15,22H17V24H15V22Z" /></svg>
